src/img/popup.svg

<svg viewBox="0 0 28 35" xmlns="http://www.w3.org/2000/svg"><g fill-rule="evenodd"><path d="m12.657 16.658-1.314-1.316 15-15 1.314 1.316z"/><path d="m28 10h-2v-8h-8v-2h10z"/><path d="m23 28h-20c-1.654 0-3-1.346-3-3v-20c0-1.654 1.346-3 3-3h11v2h-11c-.552 0-1 .449-1 1v20c0 .551.448 1 1 1h20c.552 0 1-.449 1-1v-11h2v11c0 1.654-1.346 3-3 3"/></g><g font-family="'Helvetica Neue', Helvetica, Arial-Unicode, Arial, Sans-serif" font-size="5" font-weight="bold"><text y="43">Created by Bluetip Design</text><text y="48">from the Noun Project</text></g></svg>

<svg xmlns="http://www.w3.org/2000/svg" xmlns:xlink="http://www.w3.org/1999/xlink" viewBox="0 0 28 35" version="1.1" x="0px" y="0px"><title>Group 21</title><desc>Created with Sketch.</desc><g stroke="none" stroke-width="1" fill="none" fill-rule="evenodd"><g transform="translate(-382.000000, -380.000000)" fill="#000000"><g transform="translate(382.000000, 380.000000)"><path d="M12.657,16.658 L11.343,15.342 L26.343,0.342 L27.657,1.658 L12.657,16.658"/><path d="M28,10 L26,10 L26,2 L18,2 L18,0 L28,0 L28,10"/><path d="M23,28 L3,28 C1.346,28 0,26.654 0,25 L0,5 C0,3.346 1.346,2 3,2 L14,2 L14,4 L3,4 C2.448,4 2,4.449 2,5 L2,25 C2,25.551 2.448,26 3,26 L23,26 C23.552,26 24,25.551 24,25 L24,14 L26,14 L26,25 C26,26.654 24.654,28 23,28"/></g></g></g><text x="0" y="43" fill="#000000" font-size="5px" font-weight="bold" font-family="'Helvetica Neue', Helvetica, Arial-Unicode, Arial, Sans-serif">Created by Bluetip Design</text><text x="0" y="48" fill="#000000" font-size="5px" font-weight="bold" font-family="'Helvetica Neue', Helvetica, Arial-Unicode, Arial, Sans-serif">from the Noun Project</text></svg>
